bed-clock.svg

<svg fill="currentColor" viewBox="0 0 24 24"><path d="M19.2 9.5 16 7.7V4h1.5v2.8l2.4 1.4zm3 2.2c.5.7.8 1.5.8 2.3v9h-2v-3H3v3H1V8h2v9h8v-6.4c-.6-1.1-1-2.3-1-3.6 0-3.9 3.1-7 7-7s7 3.1 7 7c0 1.8-.7 3.4-1.8 4.7M12 7c0 2.8 2.2 5 5 5s5-2.2 5-5-2.2-5-5-5-5 2.2-5 5m-5 9c1.7 0 3-1.3 3-3s-1.3-3-3-3-3 1.3-3 3 1.3 3 3 3"/></svg>

<svg  viewBox="0 0 24 24" fill="currentColor"><path  d="M19.2 9.5L16 7.7V4H17.5V6.8L19.9 8.2L19.2 9.5M22.2 11.7C22.7 12.4 23 13.2 23 14V23H21V20H3V23H1V8H3V17H11V10.6C10.4 9.5 10 8.3 10 7C10 3.1 13.1 0 17 0S24 3.1 24 7C24 8.8 23.3 10.4 22.2 11.7M12 7C12 9.8 14.2 12 17 12S22 9.8 22 7 19.8 2 17 2 12 4.2 12 7M7 16C8.7 16 10 14.7 10 13S8.7 10 7 10 4 11.3 4 13 5.3 16 7 16Z"/></svg>
